antibot/app/images/dist/oport-icon5.svg

<svg width="40" height="40" viewBox="0 0 40 40" fill="none" xmlns="http://www.w3.org/2000/svg">
<g clip-path="url(#clip0_57_16518)">
<path d="M4.16663 8.33337L6.66663 10.8334L11.6666 5.83337"  stroke-width="3.33333" stroke-linecap="round" stroke-linejoin="round"/>
<path d="M4.16663 20L6.66663 22.5L11.6666 17.5"  stroke-width="3.33333" stroke-linecap="round" stroke-linejoin="round"/>
<path d="M4.16663 31.6667L6.66663 34.1667L11.6666 29.1667"  stroke-width="3.33333" stroke-linecap="round" stroke-linejoin="round"/>
<path d="M17.5 20H35.8333"  stroke-width="3.33333" stroke-linecap="round" stroke-linejoin="round"/>
<path d="M17.5 31.6667H35.8333"  stroke-width="3.33333" stroke-linecap="round" stroke-linejoin="round"/>
<path d="M17.5 8.33337H35.8333"  stroke-width="3.33333" stroke-linecap="round" stroke-linejoin="round"/>
</g>
<defs>
<clipPath id="clip0_57_16518">
<rect width="40" height="40" fill="white"/>
</clipPath>
</defs>
</svg>

<svg width="40" height="40" fill="none" xmlns="http://www.w3.org/2000/svg"><g clip-path="url(#a)"><path d="m4.167 8.333 2.5 2.5 5-5M4.167 20l2.5 2.5 5-5m-7.5 14.167 2.5 2.5 5-5M17.5 20h18.333M17.5 31.667h18.333M17.5 8.333h18.333"/></g><defs><clipPath id="a"><path fill="#fff" d="M0 0h40v40H0z"/></clipPath></defs></svg>
